X: 16505
T: Hairy Dogleaf, The
R: reel
M: 4/4
K: Dmajor
|:~D3 F ADFA|(3BBB dB BAFE|~D3 F ADFB|dBAF EDCE|
~D3 F ADFA|(3BBB dB BAFA|(3BBB dB BAFB|1 AFEF DB,CE:|
|:cd (3ddd defd|~B3 d BAFA|defd efge|afge fdec|
d2 (3ddd edcd|~B3 d BAFA|(3BBB dB BAFB|1 AFEF Dgfe:|

